assets/img/braze_icons/horizontal-bar-chart-03.svg

<svg fill="none" height="24" viewBox="0 0 24 24" width="24" xmlns="http://www.w3.org/2000/svg"><path d="m10.1382 1.51695c.2286.01868.4984.06274.7698.20104.3763.19175.6823.49771.874.87403.1383.27143.1824.54116.2011.76976.017.20815.0169.45393.0169.70631v.86383c0 .25238.0001.49816-.0169.70631-.0187.2286-.0628.49833-.2011.76976-.1917.37632-.4977.68228-.874.87403-.2714.1383-.5412.18236-.7698.20104-.20813.01701-.45392.01698-.7063.01695l-5.4319-.00001v1.50001h9.4319c.2524-.00003.4982-.00006.7063.01695.2286.01868.4984.06274.7698.20104.3763.19175.6823.49771.874.874.1383.2715.1824.5412.2011.7698.017.2081.0169.4539.0169.7063v.8638c0 .2524.0001.4982-.0169.7063-.0187.2286-.0628.4984-.2011.7698-.1917.3763-.4977.6823-.874.874-.2714.1383-.5412.1824-.7698.2011-.2081.017-.4539.0169-.7063.0169h-9.4319v1.5h15.4319c.2524 0 .4982 0 .7063.017.2286.0186.4984.0627.7698.201.3763.1918.6823.4977.874.874.1383.2715.1824.5412.2011.7698.017.2081.0169.4538.0169.7061v.864c0 .2523.0001.4983-.0169.7064-.0187.2285-.0628.4983-.2011.7697-.1917.3763-.4977.6823-.874.874-.2714.1383-.5412.1824-.7698.2011-.2081.017-.4539.017-.7062.0169h-16.432c-.26522 0-.51957-.1053-.70711-.2929-.18753-.1875-.29289-.4419-.29289-.7071v-19c0-.26521.10536-.51957.29289-.7071.18754-.18754.44189-.2929.70711-.2929h6.4319c.25238-.00003.49818-.00006.7063.01695z" fill="#801ed7"/></svg>

<svg width="24" height="24" viewBox="0 0 24 24" fill="none" xmlns="http://www.w3.org/2000/svg">
<path d="M10.1382 1.51695C10.3668 1.53563 10.6366 1.57969 10.908 1.71799C11.2843 1.90974 11.5903 2.2157 11.782 2.59202C11.9203 2.86345 11.9644 3.13318 11.9831 3.36178C12.0001 3.56993 12 3.81571 12 4.06809V4.93192C12 5.1843 12.0001 5.43008 11.9831 5.63823C11.9644 5.86683 11.9203 6.13656 11.782 6.40799C11.5903 6.78431 11.2843 7.09027 10.908 7.28202C10.6366 7.42032 10.3668 7.46438 10.1382 7.48306C9.93007 7.50007 9.68428 7.50004 9.4319 7.50001L4 7.5V9.00001L13.4319 9.00001C13.6843 8.99998 13.9301 8.99995 14.1382 9.01696C14.3668 9.03564 14.6366 9.0797 14.908 9.218C15.2843 9.40975 15.5903 9.71571 15.782 10.092C15.9203 10.3635 15.9644 10.6332 15.9831 10.8618C16.0001 11.0699 16 11.3157 16 11.5681V12.4319C16 12.6843 16.0001 12.9301 15.9831 13.1382C15.9644 13.3668 15.9203 13.6366 15.782 13.908C15.5903 14.2843 15.2843 14.5903 14.908 14.782C14.6366 14.9203 14.3668 14.9644 14.1382 14.9831C13.9301 15.0001 13.6843 15 13.4319 15L4 15V16.5L19.4319 16.5C19.6843 16.5 19.9301 16.5 20.1382 16.517C20.3668 16.5356 20.6366 16.5797 20.908 16.718C21.2843 16.9098 21.5903 17.2157 21.782 17.592C21.9203 17.8635 21.9644 18.1332 21.9831 18.3618C22.0001 18.5699 22 18.8156 22 19.0679V19.9319C22 20.1842 22.0001 20.4302 21.9831 20.6383C21.9644 20.8668 21.9203 21.1366 21.782 21.408C21.5903 21.7843 21.2843 22.0903 20.908 22.282C20.6366 22.4203 20.3668 22.4644 20.1382 22.4831C19.9301 22.5001 19.6843 22.5001 19.432 22.5L3 22.5C2.73478 22.5 2.48043 22.3947 2.29289 22.2071C2.10536 22.0196 2 21.7652 2 21.5V2.5C2 2.23479 2.10536 1.98043 2.29289 1.7929C2.48043 1.60536 2.73478 1.5 3 1.5L9.4319 1.5C9.68428 1.49997 9.93008 1.49994 10.1382 1.51695Z" fill="#801ED7"/>
</svg>
